<?xml version="1.0" encoding="UTF-8"?>
<map version="1.10" tiledversion="1.12.2" orientation="orthogonal" renderorder="right-down" width="16" height="800" tilewidth="16" tileheight="16" infinite="0" nextlayerid="3" nextobjectid="25">
 <tileset firstgid="1" source="Hydron_Tiles_01.tsx"/>
 <tileset firstgid="449" source="enemies_32x32.tsx"/>
 <layer id="1" name="tiles layer" width="16" height="800">
  <data encoding="csv">
102,103,78,107,108,439,106,132,78,75,150,107,108,331,65,75,
130,131,75,102,103,78,331,132,75,77,65,102,103,439,105,106,
106,107,108,130,131,104,359,151,440,106,150,130,131,107,108,151,
359,102,103,76,104,359,79,75,76,132,78,79,75,102,103,78,
75,130,131,79,439,106,76,77,78,439,106,150,77,130,131,150,
107,108,79,75,76,132,65,79,75,76,151,440,106,75,107,108,
102,103,150,78,104,359,76,77,78,79,75,76,439,106,102,103,
130,131,78,104,359,76,150,78,79,75,76,77,65,331,130,131,
129,75,76,359,78,79,135,136,137,93,159,160,129,151,440,359,
157,158,25,160,161,162,163,164,165,166,167,168,157,158,25,160,
55,56,53,185,55,55,55,253,254,255,56,190,191,55,53,343,
343,186,27,391,187,188,27,281,282,283,395,396,397,398,399,400,
219,27,55,56,190,191,55,309,310,311,27,27,27,28,212,215,
215,447,218,219,27,27,28,187,55,55,55,55,27,423,240,125,
28,445,446,215,214,27,28,212,215,447,216,213,214,56,242,153,
125,126,127,128,268,215,216,270,125,126,127,128,268,447,270,181,
153,154,155,156,125,126,127,128,153,154,155,156,125,126,127,128,
181,182,183,184,153,154,155,156,181,182,183,184,153,154,155,156,
445,446,218,219,181,182,183,184,212,215,216,214,181,182,183,184,
446,218,219,212,216,215,447,269,270,55,56,268,215,447,447,215,
215,216,447,270,141,142,143,144,28,27,28,187,363,27,28,186,
218,219,56,185,169,170,171,172,56,55,391,190,191,55,56,343,
219,190,191,27,197,198,199,200,28,187,188,27,28,186,187,212,
187,27,28,423,225,226,227,228,186,27,28,187,188,212,269,270,
55,55,56,185,55,55,56,167,27,212,213,213,447,270,56,343,
446,447,218,219,28,186,445,446,447,270,188,445,446,447,214,212,
317,318,319,320,321,317,318,319,320,317,317,318,319,320,222,222,
342,425,395,396,397,398,399,400,427,428,371,425,145,146,141,142,
370,428,424,425,426,212,215,216,447,447,214,428,173,174,169,170,
447,213,447,447,213,270,145,146,427,428,217,204,426,312,197,198,
394,428,424,425,426,427,173,174,425,426,268,447,218,219,225,226,
345,346,347,348,349,345,346,347,348,349,345,346,347,348,349,345,
373,374,375,376,377,241,241,375,376,377,373,241,375,241,377,373,
28,28,28,212,213,270,279,188,27,28,186,193,27,240,27,28,
445,446,447,270,27,28,217,27,28,28,28,221,28,268,447,215,
396,397,398,399,400,56,193,55,56,56,56,56,56,56,55,56,
399,400,391,27,55,56,221,191,55,27,27,28,395,396,397,398,
186,187,27,28,187,188,27,28,186,55,55,56,56,166,189,190,
2,3,4,5,6,187,27,28,187,188,27,28,166,243,244,245,
30,31,32,33,34,28,343,186,27,28,187,188,243,244,300,275,
58,59,60,61,62,56,167,27,55,56,190,191,354,355,356,386,
86,87,88,89,90,187,27,28,187,188,27,28,55,383,384,414,
114,115,116,117,118,27,28,187,188,27,28,363,189,411,412,442,
55,55,56,167,27,55,56,363,191,55,27,27,1,2,3,4,
28,186,27,28,28,187,188,27,28,186,55,55,29,30,31,32,
4,5,6,56,186,391,28,187,188,27,27,419,57,58,59,60,
32,33,34,167,27,55,56,190,191,27,28,28,85,86,87,88,
60,61,62,27,28,363,188,27,28,141,142,143,144,114,115,116,
88,89,90,27,28,186,187,27,28,169,170,171,172,363,28,28,
116,117,118,28,186,27,28,187,423,197,198,199,200,55,56,391,
56,28,55,56,27,363,187,188,27,225,226,227,228,343,55,56,
55,56,167,27,55,56,190,191,55,56,27,28,28,445,446,447,
186,187,27,27,28,188,27,28,186,187,363,56,27,27,1,2,
447,218,219,27,27,27,28,27,363,28,55,55,391,55,29,30,
445,446,447,218,219,28,28,55,55,56,27,28,27,28,57,58,
446,447,218,219,28,28,56,56,190,191,55,27,27,27,85,86,
445,446,447,218,219,56,27,28,187,188,363,55,55,55,113,114,
5,6,445,446,215,216,447,215,216,447,214,253,254,255,27,28,
33,34,27,27,28,186,27,28,363,188,242,281,282,283,445,446,
61,62,55,27,28,141,142,143,144,191,240,309,310,311,27,380,
89,90,186,55,56,169,170,171,172,28,268,214,55,27,407,408,
117,118,56,167,27,197,198,199,200,55,56,268,214,28,27,436,
1,2,3,4,5,225,226,227,228,445,446,447,251,218,219,186,
29,30,31,32,33,34,27,28,27,55,56,190,279,55,56,343,
57,58,59,60,61,62,55,56,186,445,446,447,251,218,219,186,
85,86,87,88,89,90,56,167,27,55,56,190,268,269,269,269,
113,114,115,116,117,118,187,188,363,28,186,187,28,445,446,447,
55,56,167,27,55,56,190,191,27,1,2,3,4,5,6,28,
218,219,27,28,187,188,27,28,55,29,30,31,32,33,34,28,
219,187,27,28,343,186,27,28,187,57,58,59,60,61,62,56,
185,55,55,56,167,27,55,363,190,85,86,87,88,89,90,28,
380,381,55,187,27,28,187,27,27,113,114,115,116,117,118,56,
408,409,382,27,27,27,27,55,56,166,189,190,220,56,189,190,
436,437,28,55,55,55,55,56,166,243,244,245,248,220,27,28,
55,55,56,167,27,253,254,255,243,244,300,275,276,248,249,250,
143,144,28,28,27,281,282,283,354,355,356,386,387,388,389,278,
171,172,391,56,55,309,310,311,55,383,384,414,415,416,417,418,
199,200,27,28,186,187,27,28,189,411,412,442,443,444,445,446,
227,228,55,56,185,55,55,56,423,56,28,56,190,191,141,142,
27,28,190,191,27,28,186,187,27,55,56,56,27,28,169,170,
55,56,27,28,1,2,3,4,5,6,27,28,187,188,197,198,
27,28,55,56,29,30,31,32,33,34,55,56,190,191,225,226,
55,27,28,191,57,58,59,60,61,62,187,188,27,28,391,187,
447,218,219,190,85,86,87,88,89,90,28,187,188,27,28,186,
2,3,4,5,6,114,115,116,117,118,28,187,27,27,380,381,
30,31,32,33,34,56,190,191,55,27,28,343,55,407,408,409,
58,59,60,61,62,188,27,28,186,55,56,28,27,27,436,437,
86,87,88,89,90,56,55,56,55,56,55,56,55,56,55,56,
114,115,116,117,118,28,27,363,27,28,27,28,27,28,27,28,
55,56,55,56,55,56,55,56,55,56,55,141,142,143,144,56,
5,6,27,28,423,27,28,187,188,27,27,169,170,171,172,28,
33,34,55,56,27,55,56,190,191,55,55,197,198,199,200,56,
61,62,187,27,28,187,188,27,28,186,187,225,226,227,228,28,
89,90,27,28,186,187,27,28,343,423,27,28,187,188,27,28,
117,118,55,56,185,55,55,27,27,28,55,56,190,445,446,447,
27,28,27,28,186,187,27,55,55,56,27,28,187,253,254,255,
380,381,55,56,363,55,55,56,167,27,55,56,190,281,282,283,
408,409,382,191,1,2,3,4,5,6,187,188,27,309,310,311,
436,437,28,343,29,30,31,32,33,34,28,186,187,28,27,28,
55,55,56,167,57,58,59,60,61,62,56,27,28,56,55,315,
28,186,187,363,85,86,87,88,89,90,187,395,396,397,398,399,
55,56,55,56,113,114,115,116,117,1,2,3,4,5,6,56,
254,255,27,28,27,27,28,186,187,29,30,31,32,33,34,187,
282,283,391,56,55,27,28,186,187,57,58,59,60,61,62,187,
310,311,27,28,27,55,56,185,55,85,86,87,88,89,90,190,
55,56,55,56,55,190,191,27,423,113,114,115,116,117,118,27,
28,186,187,27,27,28,186,27,28,187,188,27,27,28,28,253,
143,144,55,145,146,56,423,55,315,190,191,55,55,56,56,281,
171,172,28,173,174,27,28,187,188,423,28,186,187,27,28,309,
199,200,56,167,27,55,56,190,256,257,258,27,28,55,391,55,
227,228,187,27,28,187,188,27,284,285,286,55,1,2,3,4,
255,28,186,187,27,253,254,255,312,313,314,188,29,30,31,32,
283,56,185,55,55,281,282,283,55,56,190,191,57,58,59,60,
311,191,27,28,186,309,310,311,187,188,27,28,85,86,87,88,
396,397,398,399,400,28,27,28,187,188,201,202,113,114,115,116,
145,146,55,56,55,56,55,56,190,191,229,230,315,56,17,18,
173,174,21,81,82,20,21,22,19,20,21,22,19,20,45,46,
45,46,49,109,110,48,49,50,47,48,49,50,47,48,73,74,
73,74,77,78,75,76,77,78,75,76,77,78,75,76,77,78,
209,210,211,294,211,294,295,294,211,294,211,211,295,294,211,294,
237,238,239,322,239,322,323,322,239,322,239,239,323,322,239,322,
265,266,267,441,350,350,350,350,441,350,350,350,441,350,350,350,
128,147,129,134,135,136,129,75,134,135,134,135,136,159,162,25,
156,24,157,158,163,164,157,158,160,161,93,163,164,187,190,53,
184,190,189,125,126,127,128,190,188,189,190,189,201,202,189,423,
202,187,27,153,154,155,156,256,257,258,423,28,229,230,188,27,
230,55,55,181,182,183,184,284,285,286,17,18,20,19,81,82,
17,18,19,20,21,22,23,312,313,314,45,46,48,47,109,110,
45,46,47,48,49,50,51,52,45,46,73,74,76,104,105,106,
73,74,107,108,77,78,79,80,73,74,75,104,105,359,108,151,
75,76,102,103,104,105,105,106,78,79,75,331,108,102,103,78,
105,106,130,131,331,78,79,151,106,77,104,330,106,130,131,104,
129,151,105,105,359,76,77,78,151,105,359,76,151,105,105,359,
209,210,293,294,294,294,211,294,295,293,294,211,294,295,296,297,
237,238,322,378,322,322,323,322,239,322,322,239,322,323,324,325,
265,266,267,350,350,441,350,350,350,441,350,441,350,351,352,353,
423,147,129,78,133,134,135,136,129,130,135,136,25,162,148,56,
23,24,157,158,93,25,163,164,157,158,163,164,53,190,447,215,
51,52,20,21,55,53,55,56,145,146,212,213,447,213,213,447,
79,80,48,49,92,186,187,27,173,174,240,27,28,423,188,27,
211,294,295,296,297,185,55,55,423,167,242,55,1,2,3,4,
239,322,323,324,325,27,28,186,187,212,270,187,29,30,31,32,
441,350,351,352,353,187,188,27,28,240,28,27,57,58,59,60,
135,136,162,148,56,190,191,55,212,270,56,55,85,86,87,88,
163,164,28,187,188,27,28,186,240,55,56,187,113,114,115,116,
27,391,56,185,55,55,56,167,279,1,2,3,4,5,6,343,
55,190,191,27,28,186,187,27,217,29,30,31,32,33,34,27,
28,343,186,27,363,187,188,27,279,57,58,59,60,61,62,27,
5,6,27,55,56,190,191,55,217,85,86,87,88,89,90,55,
33,34,445,446,215,213,218,219,279,113,114,115,116,117,118,27,
61,62,186,187,27,28,212,213,270,28,187,188,27,28,423,187,
89,90,185,55,55,56,279,445,446,215,447,218,219,56,27,28,
190,220,56,189,190,187,242,28,187,423,27,28,445,446,213,215,
245,248,220,27,28,212,270,445,446,447,215,218,219,28,27,363,
275,276,248,249,250,240,190,191,55,55,56,1,2,3,4,5,
386,387,388,389,278,217,27,27,380,381,55,29,30,31,32,33,
414,415,416,417,418,279,343,407,408,409,382,57,58,59,60,61,
442,443,444,445,446,242,167,27,436,437,28,85,86,87,88,89,
213,447,213,213,447,270,27,363,187,188,27,113,114,115,116,117,
343,185,55,56,187,188,55,56,190,1,2,3,4,5,6,56,
141,142,143,144,256,257,258,28,27,29,30,31,32,33,34,28,
169,170,171,172,284,285,286,56,55,57,58,59,60,61,62,315,
197,198,199,200,312,313,314,28,27,85,86,87,88,89,90,28,
225,226,227,228,55,56,343,56,423,113,114,115,116,117,118,56,
55,56,391,56,55,56,17,18,21,22,19,20,21,22,23,24,
19,20,19,20,21,22,45,46,49,50,47,48,49,50,51,52,
47,48,47,48,49,50,73,74,101,76,78,133,134,135,79,80,
159,160,159,160,159,129,133,134,135,134,76,135,136,160,25,160,
187,145,146,188,187,157,158,159,160,161,93,163,164,188,53,141,
27,173,174,28,27,185,186,187,188,363,190,191,212,446,219,169,
445,446,219,56,55,56,445,446,215,216,447,216,270,56,55,197,
51,52,23,445,447,219,445,446,219,145,146,28,27,27,423,225,
79,80,51,52,21,196,196,20,23,173,174,56,27,391,55,201,
107,108,79,80,50,224,224,48,51,52,23,24,445,446,219,229,
102,103,133,134,135,63,64,77,79,80,51,52,23,24,343,56,
130,131,134,77,78,336,336,134,77,78,79,80,51,52,21,22,
134,77,101,78,77,63,64,133,134,107,108,101,79,80,49,50,
159,129,133,134,135,392,392,78,101,102,103,133,134,135,78,77,
187,157,158,159,93,420,420,129,77,130,131,136,159,160,161,162,
446,219,363,187,188,448,448,157,158,25,163,164,187,188,189,141,
213,213,214,28,195,28,27,315,27,53,27,363,27,28,27,169,
55,56,240,56,223,445,446,219,27,56,55,56,55,56,55,197,
27,391,268,447,251,215,219,28,27,28,27,28,27,28,27,225,
55,56,55,56,279,56,55,56,55,56,253,254,255,256,257,258,
363,28,27,28,193,363,27,28,27,28,281,282,283,284,285,286,
55,56,55,56,221,56,55,56,55,56,309,310,311,312,313,314,
27,315,27,28,27,28,27,423,27,28,27,28,27,343,27,28,
11,12,7,8,69,70,71,72,55,56,55,56,55,56,55,56,
39,40,35,36,97,98,99,100,27,28,27,363,212,213,216,215,
143,144,55,56,55,56,55,56,343,56,55,56,242,445,446,219,
171,172,27,445,446,447,218,215,447,216,213,215,270,445,446,219,
199,200,391,445,446,219,55,56,55,56,55,56,55,56,55,56,
227,228,27,445,446,219,27,363,27,10,11,12,13,14,15,16,
68,69,70,71,72,56,55,56,55,38,39,40,41,42,43,44,
96,97,98,99,100,28,27,28,27,28,27,28,27,363,27,253,
55,56,55,141,142,143,144,56,55,56,55,56,55,56,55,281,
27,28,27,169,170,171,172,28,27,315,27,56,166,189,190,220,
381,55,55,197,198,199,200,56,55,56,55,166,243,244,245,248,
409,382,27,225,226,227,228,28,27,363,27,243,244,300,275,276,
437,28,55,56,55,56,395,56,55,56,55,354,355,356,386,387,
27,28,212,447,213,213,214,28,27,28,27,55,383,384,414,415,
215,216,270,56,28,27,268,447,214,395,28,189,411,412,442,443,
318,319,320,320,317,318,319,320,222,317,318,319,207,208,204,395,
346,347,348,348,345,346,347,348,349,423,346,347,235,236,317,318,
374,375,376,376,373,374,375,376,241,373,374,375,263,264,345,346,
142,143,144,256,257,258,55,395,193,56,55,56,291,292,373,374,
170,171,172,284,285,286,27,28,221,343,27,10,11,12,13,14,
198,199,200,312,313,314,55,56,55,56,55,38,39,40,41,42,
226,227,228,28,27,363,27,28,27,28,27,363,27,28,27,28,
66,67,68,69,70,71,72,56,55,56,55,56,391,56,253,254,
94,95,96,97,98,99,100,363,27,28,27,28,27,28,281,282,
446,447,215,216,218,219,55,56,55,56,55,56,55,56,309,310,
27,28,10,11,12,7,8,69,70,71,72,28,27,315,27,28,
341,342,38,39,40,35,36,97,98,99,100,56,55,56,445,446,
369,370,27,28,27,28,27,28,27,28,445,446,447,215,216,218,
445,446,219,212,215,216,218,219,141,142,143,144,256,257,258,56,
215,216,218,270,27,363,27,28,169,170,171,172,284,285,286,315,
55,56,220,56,55,56,55,56,197,198,199,200,312,313,314,56,
246,247,248,249,250,28,27,28,225,226,227,228,10,11,12,13,
274,275,276,277,278,391,55,56,343,56,55,56,38,39,40,41,
302,303,304,305,306,307,27,28,27,28,27,363,27,28,27,363,
329,329,332,333,334,335,55,56,55,56,55,56,27,380,381,55,
329,329,360,361,362,100,423,28,27,363,27,28,407,408,409,382,
386,387,388,389,390,56,55,56,391,56,55,56,27,436,437,28,
414,415,416,417,418,28,27,343,27,28,27,28,27,363,27,27,
442,443,444,391,55,56,55,315,55,56,55,56,55,243,244,245,
27,363,27,28,27,256,257,258,27,28,27,28,27,271,272,273,
55,56,55,56,55,284,285,286,55,56,55,56,55,299,300,301,
27,28,27,363,27,312,313,314,27,28,27,363,326,327,328,329,
1,2,3,4,5,6,55,56,55,56,55,56,354,355,356,357,
29,30,31,32,33,34,27,363,27,28,27,28,27,383,384,385,
57,58,59,60,61,62,55,56,55,56,391,56,55,411,412,413,
85,86,87,88,89,90,27,380,381,55,27,10,11,12,7,8,
113,114,115,116,117,118,407,408,409,382,55,38,39,40,35,36,
27,28,27,380,381,166,27,436,437,28,212,218,219,212,219,256,
257,258,445,408,409,382,55,56,363,56,217,56,55,279,363,284,
285,286,208,436,437,438,27,205,206,317,222,319,320,222,317,318,
313,314,55,56,55,205,206,233,234,345,346,347,348,349,345,346,
317,318,319,320,321,233,234,261,262,373,241,375,376,377,373,374,
345,346,347,348,349,261,262,289,290,391,223,1,2,3,4,5,
373,374,375,376,377,289,290,28,27,212,270,29,121,122,123,124,
320,319,317,318,319,207,208,56,55,193,391,57,149,154,155,152,
348,347,345,346,347,235,236,207,363,221,55,85,177,178,179,180,
376,375,373,374,375,263,264,235,236,207,208,208,114,115,116,117,
1,2,3,4,5,291,292,263,264,235,236,317,318,319,320,321,
29,30,31,32,33,34,55,291,292,263,264,345,346,347,348,349,
57,58,59,60,61,62,27,363,27,291,292,373,374,375,376,241,
85,86,87,88,89,90,55,56,55,56,55,56,423,55,363,223,
113,114,115,116,117,118,27,391,205,206,317,318,319,320,321,222,
317,318,319,320,321,317,320,319,233,234,345,346,347,348,349,345,
345,346,347,348,349,345,348,347,261,262,373,374,375,376,377,373,
373,374,375,376,377,373,376,375,289,290,2,3,4,5,6,56,
257,258,27,363,341,342,27,28,363,29,30,31,32,33,34,28,
285,286,55,56,369,370,380,381,166,57,58,59,60,61,62,56,
313,314,27,28,27,445,408,409,219,85,86,87,88,89,90,391,
318,319,320,321,207,208,436,437,438,113,114,115,116,117,118,56,
346,347,348,349,235,236,317,318,319,320,321,317,318,319,320,320,
374,375,376,377,263,264,345,346,347,348,349,345,346,347,348,348,
27,28,27,28,291,292,373,241,375,376,241,373,374,375,376,376,
55,56,391,56,55,56,55,223,55,363,223,56,55,56,341,342,
317,318,319,320,321,317,318,222,320,317,222,319,207,208,369,370,
345,346,347,348,349,345,346,348,348,345,346,347,235,236,317,318,
373,374,375,376,377,373,374,241,376,373,241,375,263,264,345,346,
219,56,363,56,55,56,55,193,55,56,242,56,291,292,373,374,
215,216,218,219,27,28,27,221,27,212,270,256,257,258,27,343,
55,56,55,56,55,56,363,56,55,193,55,284,285,286,55,56,
343,28,27,423,27,28,27,28,27,221,27,312,313,314,27,391,
445,446,447,215,216,218,219,18,21,22,19,20,21,22,23,24,
19,20,19,20,21,22,45,46,49,50,47,48,49,50,51,52,
47,48,47,48,49,50,73,74,101,78,101,78,78,101,79,80,
159,160,159,160,159,129,78,101,134,78,101,135,136,25,159,160,
187,145,146,188,187,157,158,159,160,161,162,163,164,53,187,141,
27,173,174,256,257,258,186,212,213,218,219,191,192,28,27,169,
23,24,391,284,285,286,55,193,55,445,446,447,215,216,214,197,
51,52,23,312,313,314,343,221,27,145,146,28,27,391,242,225,
79,80,51,52,21,196,196,20,23,173,174,56,55,56,193,201,
135,77,79,80,49,224,224,48,51,52,23,24,363,28,221,229,
77,134,133,134,135,63,64,101,79,80,51,52,23,24,343,56,
134,135,107,108,77,392,392,77,135,77,79,80,51,52,21,22,
77,135,102,103,78,364,364,78,77,107,108,135,79,80,49,50,
159,129,130,131,77,63,64,133,134,102,103,133,134,135,133,134,
187,157,158,159,25,420,420,129,134,130,131,136,159,160,161,25,
69,70,71,72,53,448,448,157,158,93,163,164,187,188,363,53,
97,98,99,100,55,56,195,343,55,56,10,11,12,13,14,15,
220,28,27,341,342,28,223,28,212,218,219,39,40,41,42,43,
248,249,250,369,370,56,268,218,270,27,55,56,220,56,55,56,
276,277,278,28,27,363,27,243,244,245,246,247,248,249,250,28,
304,305,306,307,55,56,55,271,272,273,274,275,276,277,278,56,
332,333,334,335,27,28,27,299,300,301,302,303,304,305,306,307,
360,361,362,391,55,56,326,327,328,329,329,329,332,333,334,335,
388,389,390,28,27,419,354,355,356,357,329,329,360,361,362,256,
416,417,418,56,55,56,55,383,384,385,386,387,388,389,390,284,
444,28,27,363,27,28,27,411,412,413,414,415,416,417,418,312,
55,56,55,56,55,56,55,253,254,255,442,443,444,10,11,12,
71,72,27,28,27,391,27,281,282,283,55,391,27,38,39,40,
99,100,55,56,55,56,55,309,310,311,55,56,220,421,55,391,
8,69,70,71,72,363,27,243,244,245,246,247,248,249,250,28,
36,97,98,99,100,56,55,271,272,273,274,275,276,277,278,204,
27,28,391,256,257,258,27,299,300,301,302,303,304,305,306,307,
55,363,55,284,285,286,326,327,328,329,329,329,332,333,334,335,
342,28,27,312,313,314,354,355,356,357,329,329,360,361,362,55,
370,27,55,56,220,204,55,383,384,385,386,387,388,389,390,315,
244,245,246,247,248,249,250,411,412,413,414,415,416,417,418,341,
272,273,274,275,276,277,278,56,55,56,442,443,444,343,55,369,
300,301,302,303,304,305,306,307,27,391,27,363,27,28,27,220,
328,329,329,329,332,333,334,335,55,56,391,244,245,246,247,248,
356,357,329,329,360,361,362,341,342,28,271,272,273,274,275,276,
384,385,386,387,388,389,390,369,370,56,299,300,301,302,303,304,
412,413,414,415,416,417,418,28,27,326,327,328,329,329,329,332,
204,56,442,443,444,56,55,423,55,354,355,356,357,329,329,360,
27,363,27,28,27,391,27,256,257,258,383,384,385,386,387,388,
55,56,55,56,55,56,55,284,285,286,411,412,413,414,415,416,
27,28,27,363,27,220,27,312,313,314,27,28,27,442,443,444,
243,244,245,246,247,248,249,250,55,391,2,3,4,5,6,56,
271,272,273,274,275,276,277,278,27,29,30,31,32,33,34,28,
299,300,301,302,303,304,305,306,307,57,58,59,60,61,62,56,
327,328,329,329,329,332,333,334,335,85,86,87,88,89,90,28,
355,356,357,329,329,360,361,362,55,113,114,115,116,117,118,391,
383,384,385,386,387,388,389,390,27,28,27,28,341,342,27,28,
411,412,413,414,415,416,417,418,391,56,55,56,369,370,256,257,
391,395,27,442,443,444,27,28,27,28,27,421,27,28,284,285,
1,2,3,4,5,6,55,56,363,56,55,56,55,56,312,313,
29,30,31,32,33,34,363,28,27,28,10,11,12,13,14,15,
57,58,59,60,61,62,55,343,55,56,391,39,40,41,42,43,
85,86,87,88,89,90,27,28,27,28,27,28,27,363,212,213,
113,114,115,116,117,118,55,56,1,2,3,4,5,6,240,343,
67,68,69,70,71,72,363,28,29,30,31,32,33,34,268,214,
95,96,97,98,99,100,55,56,57,58,59,60,61,62,55,242,
27,28,419,27,27,28,220,28,220,86,87,88,89,90,27,217,
55,391,244,245,246,247,248,249,250,114,115,116,117,118,55,268,
27,271,272,273,274,275,276,277,278,28,419,28,27,10,11,12,
55,299,300,301,302,303,304,305,306,307,55,56,55,38,39,40,
326,327,328,329,329,329,332,333,334,335,27,28,363,28,27,28,
354,355,356,357,329,329,360,361,362,341,342,56,55,56,55,391,
27,383,384,385,386,387,388,389,390,369,370,28,27,28,27,28,
55,411,412,413,414,415,416,417,418,56,55,56,55,423,341,342,
419,28,27,28,442,443,444,28,27,363,27,28,27,28,369,370,
213,447,214,56,55,56,55,391,55,56,55,212,213,447,214,56,
342,28,240,28,27,28,27,28,27,28,27,240,27,28,217,343,
370,56,268,215,216,214,445,446,447,218,219,268,214,56,268,269,
69,70,71,72,27,242,445,446,215,218,219,28,242,391,27,28,
97,98,99,100,55,268,215,216,213,213,447,216,270,56,55,419,
343,28,175,28,27,28,445,446,213,218,219,28,27,28,27,28,
55,56,203,204,55,56,55,56,10,11,12,7,8,69,70,71,
391,28,231,232,27,28,27,28,38,39,40,35,36,97,98,99,
55,56,259,260,55,56,363,56,55,56,55,1,2,3,4,5,
27,28,287,288,27,391,27,28,27,28,27,29,30,31,32,33,
55,56,315,316,55,56,55,56,55,56,55,57,58,59,60,61,
27,28,343,344,27,28,125,126,127,128,27,85,86,87,88,89,
55,56,55,372,55,56,153,154,155,156,55,113,114,115,116,117,
27,28,27,28,27,28,181,182,183,184,27,27,27,28,220,28,
218,219,55,56,55,212,218,219,55,243,244,245,246,247,248,249,
447,216,215,216,269,270,27,28,27,271,272,273,274,275,276,277,
445,446,447,218,219,56,55,56,55,299,300,301,302,303,304,305,
27,28,27,28,27,28,419,28,326,327,328,329,329,329,332,333,
1,2,3,4,5,6,55,391,354,355,356,357,329,329,360,361,
29,121,122,123,124,34,27,28,27,383,384,385,386,387,388,389,
57,149,154,155,152,62,55,56,55,411,412,413,414,415,416,417,
85,177,178,179,180,90,27,28,27,28,27,28,442,443,444,28,
113,114,115,116,117,118,55,56,423,56,55,56,125,126,127,128,
447,218,219,28,27,28,27,28,27,28,363,28,153,154,155,156,
55,56,55,56,55,56,55,1,2,3,4,5,181,182,183,184,
419,28,391,28,27,343,27,29,30,31,32,33,34,445,446,447,
423,56,55,56,55,56,55,57,58,59,60,61,62,56,55,298,
27,28,27,28,27,28,27,85,86,87,88,89,90,28,27,28,
318,319,320,321,207,208,56,113,114,115,116,117,118,343,55,419,
425,204,427,391,428,236,318,319,320,321,207,208,55,55,56,55,
346,347,348,349,235,363,425,343,427,391,235,236,317,318,320,320,
374,375,376,377,263,264,346,347,348,349,235,424,424,315,427,391,
2,3,4,5,291,292,374,375,376,377,263,264,346,347,348,349,
30,31,32,33,34,28,27,204,27,28,291,292,374,375,376,377,
58,59,60,61,62,56,55,27,55,56,419,56,55,56,445,446,
86,87,88,89,90,28,27,28,27,391,363,1,2,3,4,5,
114,115,116,117,118,56,55,56,55,56,55,29,30,31,32,33,
189,190,220,56,189,190,27,28,27,28,27,57,58,59,60,61,
244,245,248,220,27,28,55,56,55,56,55,85,86,87,88,89,
300,275,276,248,249,250,27,28,256,257,258,113,114,115,116,117,
356,386,387,388,389,278,55,56,284,285,286,56,55,56,363,56,
384,414,415,416,417,418,27,28,312,313,314,28,445,446,447,218,
412,442,443,444,445,446,218,219,21,22,19,20,21,22,23,24,
19,20,19,20,21,22,45,46,49,50,47,48,49,50,51,52,
47,48,47,48,49,50,73,74,77,133,134,135,77,101,79,80,
159,160,159,93,159,129,133,134,135,134,77,135,136,160,159,160,
214,145,146,188,187,157,158,159,160,161,162,163,164,188,187,141,
240,173,174,212,213,214,212,213,214,445,446,447,215,218,219,169,
268,215,216,270,55,193,193,56,268,215,446,447,218,215,219,197,
51,52,23,24,27,221,221,28,27,145,146,445,446,218,219,225,
79,80,51,52,21,196,196,20,23,173,174,56,55,343,55,201,
134,135,79,80,49,224,224,48,51,52,23,298,27,28,27,229,
134,77,133,134,135,63,64,77,79,80,51,52,23,445,446,447,
135,133,134,135,77,336,336,133,107,108,79,80,51,52,21,22,
159,129,133,134,135,392,392,133,102,103,134,135,79,80,49,50,
187,157,158,159,160,420,420,129,130,131,78,134,77,133,134,135,
20,21,22,23,24,448,448,157,158,162,159,160,25,160,161,162,
48,49,50,51,52,20,81,82,21,83,84,21,53,81,82,21,
76,77,78,79,80,48,109,110,49,111,112,49,48,109,110,49,
211,294,293,294,294,296,295,211,294,211,293,294,295,296,293,295,
322,322,322,239,322,324,323,239,322,239,322,322,378,322,324,323,
350,350,75,76,350,78,76,350,350,350,350,350,75,76,77,78,
77,133,136,161,93,161,162,160,160,161,162,93,161,162,129,133,
161,162,164,212,215,214,212,447,216,214,190,191,192,28,157,158,
447,269,447,270,55,193,193,56,55,268,215,216,216,216,214,28,
51,52,23,24,27,221,221,28,27,145,146,256,257,258,242,24,
79,80,51,52,21,196,196,20,23,173,174,284,285,286,242,201,
107,108,79,80,49,224,224,48,51,52,23,312,313,314,279,229,
102,103,133,134,135,63,64,77,79,80,51,52,23,24,268,269,
130,131,135,77,134,336,336,133,134,135,79,80,51,52,21,22,
77,134,75,101,77,364,364,101,77,107,108,77,79,80,49,50,
159,129,133,134,135,63,64,133,134,102,103,135,77,133,134,135,
187,157,158,25,160,420,420,129,75,130,131,136,159,160,161,162,
213,214,186,53,188,448,448,157,158,162,163,164,187,188,423,190,
315,268,215,216,218,219,195,56,185,186,166,188,189,191,191,201,
201,202,343,56,189,186,223,190,212,213,215,216,447,216,214,229,
229,230,55,445,446,447,251,447,251,215,216,447,214,56,242,56,
69,70,71,72,27,28,268,269,270,142,143,144,268,214,268,269,
97,98,99,100,55,56,55,56,169,170,171,172,55,242,55,56,
12,7,8,69,70,71,72,188,197,198,199,200,27,217,27,343,
40,35,36,97,98,99,100,56,225,226,227,228,55,268,269,447,
10,11,12,7,8,69,70,71,72,28,363,1,2,3,4,5,
38,39,40,35,36,97,98,99,100,56,55,29,121,122,123,124,
8,69,70,71,72,28,27,185,27,204,27,57,149,154,155,152,
36,97,98,99,100,56,55,56,55,56,55,85,177,178,179,180,
146,298,27,28,145,146,27,28,201,202,27,113,114,115,116,117,
174,56,55,56,173,174,55,56,229,230,27,205,206,318,319,320,
27,185,27,28,315,28,27,205,206,318,321,233,234,187,188,27,
27,205,206,318,319,320,321,233,234,187,188,27,55,56,55,145,
321,233,234,187,188,27,100,185,27,28,27,204,27,298,27,173,
55,56,55,363,55,56,17,18,21,22,19,20,21,22,23,24,
19,20,19,20,21,22,45,46,49,50,47,48,49,50,51,52,
47,48,111,48,49,50,73,74,77,133,134,135,75,77,79,80,
159,160,159,25,159,129,133,134,135,77,78,135,136,160,159,160,
298,145,146,53,187,157,158,159,93,161,162,163,164,188,187,141,
27,173,174,28,27,212,215,447,215,216,447,214,192,195,27,169,
23,24,55,56,363,193,55,56,298,56,55,242,55,223,55,197,
51,52,23,24,27,221,27,185,27,341,342,240,371,242,298,225,
79,80,51,52,21,196,196,20,23,369,370,268,269,251,219,201,
134,135,79,80,111,224,224,112,51,52,23,24,27,193,27,229,
77,107,108,135,77,252,252,77,79,80,51,52,23,221,55,315,
135,102,103,77,134,336,336,133,134,135,79,80,51,52,21,22,
78,130,131,134,135,63,64,75,77,107,108,78,79,80,49,50,
159,129,77,101,77,392,392,133,134,102,103,134,135,133,134,135,
187,157,158,159,160,420,420,129,78,130,131,136,25,160,161,162,
216,447,214,187,188,448,448,157,158,93,163,164,53,188,189,190,
143,144,268,269,218,219,337,185,186,190,142,143,55,256,257,258,
171,172,27,1,2,3,4,5,6,169,170,171,172,284,285,286,
199,200,55,29,30,31,32,33,34,197,198,199,200,312,313,314,
227,228,27,57,58,59,60,61,62,28,226,227,228,28,27,28,
55,56,337,85,86,87,88,89,90,56,337,56,10,11,12,7,
337,421,27,113,114,115,116,117,118,28,27,185,38,39,40,35,
55,393,141,142,143,144,55,56,394,56,55,363,366,365,55,337,
27,28,169,170,171,172,27,28,340,28,366,28,337,28,27,391,
55,56,197,198,199,200,55,393,339,56,391,56,55,366,55,394,
27,28,225,226,227,228,340,28,27,28,27,28,366,28,421,28,
337,56,55,337,55,256,257,258,55,366,55,56,55,56,141,142,
218,219,27,28,27,284,285,286,340,28,337,185,27,28,169,170,
216,215,216,218,219,312,313,314,55,445,446,218,219,56,197,198,
216,447,216,215,214,445,446,447,218,219,338,28,27,28,225,226,
447,218,219,56,268,447,216,215,216,215,447,447,216,214,338,445,
5,6,10,11,12,7,9,8,69,70,71,72,27,268,215,216,
33,34,27,39,40,35,36,37,97,98,99,27,55,445,446,447,
61,62,27,28,27,391,27,185,27,28,338,28,27,1,2,3,
89,90,55,56,55,56,55,56,55,363,55,185,55,29,30,31,
117,118,27,28,27,28,27,28,27,28,27,28,27,57,58,59,
55,56,55,56,256,257,258,56,55,56,55,56,55,85,86,87,
27,28,27,28,284,285,286,141,142,143,144,28,27,113,114,115,
55,56,55,363,312,313,314,169,170,171,172,56,55,56,55,445,
27,423,27,28,201,202,27,197,198,199,200,175,27,28,27,28,
446,218,219,56,229,230,55,225,226,227,228,203,204,56,445,446,
190,220,56,189,190,28,27,28,27,28,27,231,232,1,2,3,
245,248,220,27,28,56,55,56,55,56,55,259,260,29,30,31,
275,276,248,249,250,28,27,391,27,28,363,287,288,57,58,59,
386,387,388,389,278,56,55,56,55,56,55,315,316,85,86,87,
414,415,416,417,418,28,445,446,218,219,27,343,344,113,114,115,
442,443,444,445,446,218,219,56,125,126,127,128,372,56,55,256,
27,28,27,28,27,28,27,28,153,154,155,156,27,363,27,284,
12,7,9,8,69,70,71,72,181,182,183,184,55,56,55,312,
40,35,36,37,97,98,99,27,27,28,10,11,12,7,9,8,
2,3,4,5,6,27,28,56,55,56,27,39,40,35,36,37,
30,31,32,33,34,363,56,28,27,28,2,3,4,5,445,446,
58,59,60,61,62,27,191,27,191,29,30,31,32,33,34,56,
86,87,88,89,90,27,28,27,28,57,58,59,60,61,62,56,
114,115,116,117,118,2,3,4,5,85,86,87,88,89,90,2,
27,28,56,56,29,30,31,32,33,34,114,115,116,117,29,30,
215,219,27,28,57,58,59,60,61,62,201,202,56,56,57,58,
446,215,219,56,85,86,87,88,89,90,229,230,56,56,85,86,
28,2,3,4,5,114,115,116,117,27,28,17,18,27,56,114,
29,121,122,123,124,34,27,28,56,55,56,27,191,192,56,56,
57,149,154,155,152,62,55,56,56,10,11,12,7,8,69,70,
85,177,178,179,180,90,56,56,27,38,39,40,35,36,97,98,
56,114,115,116,117,27,28,17,18,27,27,28,56,17,18,19,
12,7,8,69,70,71,72,27,191,192,28,363,18,45,46,47,
40,35,36,97,98,99,100,27,18,83,84,45,46,73,74,107,
191,55,10,11,12,13,14,15,16,111,112,73,74,133,134,102,
69,70,71,72,40,41,42,43,44,129,77,135,136,129,133,130,
97,98,99,27,28,17,18,27,28,157,158,163,164,157,158,159,
17,18,145,146,56,56,27,28,17,204,27,205,206,318,319,320,
27,191,173,174,27,205,206,318,319,320,321,233,234,343,188,27,
206,318,319,320,321,233,194,189,188,27,391,17,18,27,28,27,
234,187,188,27,27,189,190,17,18,189,190,191,192,55,56,29,
5,189,190,27,27,27,27,2,3,4,5,27,145,146,27,57,
33,34,191,192,363,18,29,30,31,32,33,34,173,174,27,85,
61,62,17,18,191,192,57,58,59,60,61,62,27,2,3,4,
89,90,2,3,4,5,85,86,87,88,89,90,29,30,31,32,
117,29,30,31,32,33,34,114,115,116,117,27,57,58,59,60,
190,57,58,59,60,61,62,27,28,189,190,27,85,86,87,88,
192,85,86,87,88,89,90,55,56,2,3,4,5,114,115,116,
27,28,114,115,116,117,191,192,29,30,31,32,33,34,189,190,
55,56,191,192,201,202,192,27,57,58,59,60,61,62,191,192,
253,254,255,18,229,230,27,391,85,86,87,88,89,90,445,446,
281,282,283,189,190,56,55,56,27,114,115,116,117,445,446,215,
309,310,311,18,81,82,21,22,19,196,21,83,84,196,23,24,
17,18,45,46,109,110,49,50,47,224,49,111,112,224,51,52,
45,46,73,74,77,75,133,134,135,63,379,379,435,64,79,80,
73,74,78,107,108,77,134,75,134,280,77,75,134,280,76,107,
101,75,77,102,103,101,75,78,77,308,101,78,75,392,101,102,
77,134,133,130,131,133,134,135,78,336,107,108,78,336,133,130,
134,135,77,78,77,134,101,76,77,364,102,103,77,392,134,101,
77,133,134,135,65,77,133,134,135,392,130,131,135,280,107,108,
78,77,78,133,134,135,77,78,77,308,77,75,77,308,102,103,
135,75,77,101,77,75,133,107,108,63,379,435,379,64,130,131,
108,134,135,77,133,134,135,102,103,392,133,134,135,364,77,77,
103,135,101,133,134,135,78,130,131,392,77,78,77,392,133,134,
131,135,77,78,135,136,137,138,139,420,137,138,139,420,25,138,
136,137,25,139,163,164,165,365,366,448,256,257,258,448,53,391,
164,391,53,445,446,447,215,216,218,219,284,285,286,185,363,185,
9,8,69,70,71,72,445,446,215,219,312,313,314,253,254,255,
36,37,97,98,99,27,339,340,201,202,365,339,340,281,282,283,
84,196,84,196,84,22,23,24,229,230,393,394,365,309,310,311,
112,224,112,224,112,50,51,52,83,84,23,24,339,340,17,18,
108,252,77,392,77,75,79,80,111,112,51,52,81,82,45,46,
103,63,379,64,133,134,135,133,134,135,79,80,109,110,73,74,
131,392,77,392,78,135,136,137,138,129,77,133,134,135,134,135,
139,420,25,420,139,163,164,391,166,157,158,159,160,161,25,163,
167,448,53,448,167,191,192,256,257,258,186,187,188,391,53,191,
218,219,365,393,394,365,365,284,285,286,201,202,365,10,11,12,
394,339,340,421,422,339,340,312,313,314,229,230,393,27,39,40,
11,12,7,9,8,69,70,71,72,421,339,340,337,363,340,145,
39,40,35,36,37,97,98,99,27,185,186,187,188,189,190,173,
8,69,70,71,72,256,257,258,201,202,10,11,12,7,9,8,
37,97,98,99,27,284,285,286,229,230,27,39,40,35,36,37,
186,187,188,189,190,312,313,314,365,337,185,186,187,391,189,190,
202,365,145,146,423,185,186,187,393,189,365,421,145,146,10,11,
230,393,173,174,339,363,340,337,339,340,393,337,173,174,27,39,
17,18,196,20,21,196,23,24,391,187,27,28,165,363,27,28,
45,46,224,48,49,224,51,52,23,24,55,56,186,187,55,201,
73,74,252,76,77,252,79,80,51,52,21,22,23,24,186,229,
133,134,392,76,75,392,77,78,79,80,49,50,51,52,23,24,
75,76,308,107,108,308,76,76,76,133,134,135,79,80,51,52,
76,76,54,102,103,54,134,135,76,101,76,107,108,76,79,80,
76,76,133,130,131,75,76,76,75,76,76,102,103,133,134,107,
75,76,77,78,76,76,78,65,133,134,135,130,131,76,77,102,
107,108,76,76,133,134,135,76,76,76,101,76,76,101,76,130,
102,103,134,135,101,26,76,76,133,134,135,76,133,134,135,78,
130,131,76,133,134,392,26,75,76,77,75,76,76,76,76,76,
76,76,75,76,75,308,392,107,108,76,76,76,76,78,101,76,
76,78,76,76,101,63,64,102,103,76,133,134,135,76,76,136,
101,76,75,76,77,392,364,130,131,76,136,160,161,162,163,164,
76,133,134,135,76,392,392,76,136,163,164,188,363,190,27,28,
135,76,76,76,136,420,420,163,164,191,10,11,12,13,14,15,
77,78,136,163,164,448,448,201,202,28,56,39,40,41,42,43,
136,163,164,191,391,28,189,229,230,56,55,56,55,56,185,186,
164,191,10,11,12,13,69,70,71,72,27,28,189,253,254,255,
192,28,55,39,40,41,97,98,99,186,391,56,55,281,282,283,
81,82,23,24,27,28,55,56,27,28,28,27,27,309,310,311,
109,110,51,52,83,84,81,82,83,84,56,55,55,56,185,186,
134,135,79,80,111,112,109,110,111,112,67,68,69,70,71,72,
77,133,134,135,135,136,137,138,139,140,95,96,97,98,99,185,
137,138,139,25,163,164,253,254,255,391,166,167,185,363,166,201,
219,166,167,53,191,192,281,282,283,186,27,28,185,186,27,229,
19,20,21,22,23,24,309,310,311,167,55,56,10,11,12,13,
47,48,49,50,51,52,19,20,21,22,23,24,55,39,40,41,
75,76,77,77,79,80,47,48,49,50,51,52,19,20,81,82,
133,134,135,134,75,101,107,108,77,78,79,80,47,48,109,110,
160,161,129,133,134,135,102,103,77,75,135,136,137,138,139,140,
391,189,157,158,129,77,130,131,134,136,163,164,165,166,167,168,
196,22,23,24,157,158,160,161,163,164,10,11,12,13,14,15,
224,50,51,52,196,20,21,23,24,363,56,39,40,41,42,43,
392,135,79,80,224,48,49,51,52,196,196,391,22,23,55,56,
63,379,379,435,64,107,108,79,80,224,224,49,50,51,52,196,
336,134,135,134,392,102,103,134,135,63,64,134,135,79,80,224,
392,77,75,77,308,130,131,77,133,392,308,101,77,26,77,252,
63,379,435,379,64,75,77,78,134,308,54,107,108,252,78,392,
392,133,134,135,364,133,134,135,77,54,77,102,103,308,135,308,
392,77,75,133,392,135,77,133,134,135,78,130,131,63,379,64,
420,159,160,161,420,129,78,77,133,134,135,78,77,364,77,364,
448,187,188,363,448,157,158,159,160,161,162,129,133,392,135,392,
218,219,166,186,187,188,1,2,3,4,5,157,158,420,25,420,
215,218,219,28,165,166,29,121,122,123,124,34,27,448,53,448,
8,69,70,71,72,28,57,149,154,155,152,62,55,445,446,447,
36,97,98,99,100,56,85,177,178,179,180,90,165,166,445,446,
447,218,219,18,23,24,113,114,115,116,117,118,186,445,446,447,
17,18,45,46,51,52,19,20,21,22,19,20,21,22,23,24,
45,46,73,74,79,80,47,48,49,50,47,48,49,50,51,52,
73,74,77,133,134,135,75,76,77,107,108,76,77,101,79,80,
107,108,77,78,77,75,77,78,133,102,103,77,78,77,75,77,
102,103,134,135,65,133,134,135,77,130,131,75,133,134,107,108,
130,131,78,133,134,135,77,133,134,135,77,101,77,133,102,103,
133,134,135,77,101,107,108,77,78,133,134,135,78,77,130,131,
135,78,77,75,133,102,103,78,133,134,135,78,133,134,135,78,
77,77,133,134,135,130,131,136,129,78,77,75,77,78,135,136,
134,135,136,160,161,162,163,164,157,158,159,160,25,162,163,164,
25,163,164,188,391,190,253,254,255,186,27,28,53,2,3,4,
53,191,192,166,166,167,281,282,283,186,55,56,29,121,122,123,
141,142,143,144,175,28,309,310,311,166,166,167,57,149,154,155,
169,170,171,172,203,423,167,168,55,56,166,167,85,177,178,179,
197,198,199,200,231,232,27,28,166,167,27,28,113,114,115,116,
225,226,227,228,259,260,55,56,189,190,55,56,10,11,12,7,
27,28,189,190,287,288,166,167,27,28,185,186,38,39,40,35,
55,56,391,167,315,316,185,141,142,143,144,167,55,56,166,167,
27,28,166,167,343,344,189,169,170,171,172,391,168,28,166,167,
2,3,4,5,6,372,167,197,198,199,200,363,55,56,185,186,
121,122,123,124,34,167,27,225,226,227,228,28,166,423,253,254,
149,154,155,152,62,190,421,56,189,190,55,56,166,167,281,282,
177,178,179,180,90,28,166,167,27,28,185,186,27,28,309,310,
114,115,116,117,118,56,185,186,55,10,11,12,7,8,69,70,
27,28,166,167,27,28,189,190,27,38,39,40,35,36,97,98,
55,56,189,190,55,166,167,168,55,56,166,1,2,3,4,5,
166,167,27,28,1,2,3,4,5,6,27,29,30,31,32,33,
189,190,55,56,29,30,31,32,33,34,55,57,58,59,60,61,
27,28,189,190,57,58,59,60,61,62,185,85,86,87,88,89,
55,56,166,363,85,86,87,88,89,90,166,113,114,115,116,117,
219,28,166,167,113,114,115,116,117,118,166,167,168,28,166,167,
249,250,189,190,55,166,167,1,2,3,4,5,6,56,185,186,
277,278,27,28,166,167,27,29,30,31,32,33,34,167,168,391,
305,306,307,56,189,190,55,57,58,59,60,61,62,167,380,381,
333,334,335,445,446,218,219,85,86,87,88,89,90,212,408,409,
361,362,166,167,55,56,380,381,114,115,116,117,118,242,436,437,
389,390,166,391,27,407,408,409,410,447,216,215,447,270,141,142,
417,418,189,190,55,166,436,437,438,56,166,167,55,56,169,170,
2,3,4,5,6,167,27,28,166,167,27,28,166,167,197,198,
30,31,32,33,34,190,55,56,189,190,55,56,166,363,225,226,
58,59,60,61,62,28,166,167,27,28,185,186,27,28,189,190,
86,87,88,89,90,28,189,190,125,126,127,128,168,28,166,421,
114,115,116,117,118,166,167,168,153,154,155,156,55,56,185,186,
166,167,421,28,125,126,127,128,181,182,183,184,166,167,168,28,
189,190,55,56,153,154,155,156,391,190,55,56,166,445,446,218,
27,28,189,190,181,182,183,184,27,28,185,186,27,28,189,445,
249,250,166,167,55,56,185,186,55,56,166,1,2,3,4,5,
277,278,166,363,27,28,189,190,27,166,166,29,121,122,123,124,
305,306,307,190,55,166,167,168,55,56,166,57,149,154,155,152,
333,334,335,28,166,167,27,28,166,167,27,85,177,178,179,180,
361,362,55,56,1,2,3,4,5,6,55,113,114,115,116,117,
389,390,189,190,29,30,31,32,33,34,185,186,27,28,189,190,
417,418,166,167,57,58,59,60,61,62,166,167,168,28,166,167,
55,56,189,190,85,86,87,88,89,90,56,166,189,190,220,56,
8,69,70,71,72,114,115,116,117,118,166,243,244,245,248,220,
36,97,98,99,100,190,55,56,189,391,243,244,300,275,276,248,
27,204,189,190,27,28,166,167,27,28,354,355,356,386,387,388,
55,56,166,167,55,56,185,186,55,56,55,383,384,414,415,416,
27,28,166,391,27,28,189,190,27,166,189,411,412,442,443,444,
219,56,189,190,55,166,167,168,55,56,166,167,55,380,381,113,
410,214,27,28,166,167,27,28,166,167,27,28,212,408,409,410,
189,268,215,447,214,190,55,56,189,190,55,56,240,436,437,438,
3,4,5,6,242,28,166,167,27,28,185,212,270,28,1,2,
31,32,33,34,240,380,381,186,380,381,166,242,55,56,29,30,
59,60,61,62,268,408,409,410,408,409,410,270,168,28,57,58,
87,88,89,90,55,436,437,438,436,437,438,363,55,56,85,86,
115,116,117,118,166,167,27,28,166,167,27,28,166,167,113,114,
10,11,12,13,7,8,8,8,9,8,9,12,13,7,8,9,
55,39,40,41,35,36,37,36,42,36,36,40,41,35,36,37,
5,6,166,167,55,56,195,186,40,10,11,12,7,8,69,70,
33,34,166,380,381,28,223,190,27,38,39,40,35,36,97,98,
61,62,189,408,409,410,251,215,447,214,166,167,55,56,185,186,
89,90,27,436,437,438,193,28,166,268,214,28,166,167,380,381,
117,118,55,56,189,190,221,56,189,190,279,56,371,407,408,409,
27,28,166,167,27,28,189,380,381,166,217,363,168,28,436,437,
204,56,189,190,212,218,215,408,409,410,251,214,55,56,185,186,
166,380,381,28,217,167,27,436,437,438,193,242,212,218,215,218,
407,408,409,410,270,190,55,56,189,190,221,268,270,1,2,3,
27,436,437,438,27,28,166,167,27,380,381,186,27,29,30,31,
55,56,166,167,445,446,447,215,216,408,409,410,214,57,58,59,
219,28,166,391,27,28,189,190,27,436,437,438,279,85,86,87,
381,56,189,1,2,3,4,5,6,56,166,167,268,214,114,115,
409,410,219,29,30,31,32,33,34,190,27,166,166,217,380,381,
437,438,27,57,58,59,60,61,62,190,27,166,166,268,408,409,
218,219,55,85,86,87,88,89,90,1,2,3,4,5,436,437,
219,166,167,113,114,115,116,117,118,29,30,31,32,33,34,445,
27,27,28,166,167,27,28,189,190,57,58,59,60,61,62,166,
55,55,27,27,28,166,391,27,28,85,86,87,88,89,90,445,
69,70,71,72,56,189,190,55,166,113,114,115,116,117,118,55,
97,98,99,190,167,27,28,166,167,27,28,166,167,1,2,3,
5,6,189,189,190,55,56,189,190,27,28,166,363,29,30,31,
33,34,27,27,28,141,142,143,144,27,28,166,167,57,58,59,
61,62,55,55,27,169,170,171,172,28,189,190,27,85,86,87,
89,90,27,28,391,197,198,199,200,166,167,168,55,113,114,115,
117,118,55,363,166,225,226,227,228,167,27,28,166,167,27,28,
6,28,166,167,189,190,55,56,189,190,10,11,12,13,7,8,
34,56,185,186,27,28,371,190,27,28,55,39,40,41,35,36,
62,28,166,167,55,56,166,167,55,371,185,56,166,189,190,220,
90,28,1,2,3,4,5,6,167,55,56,166,243,244,245,248,
118,56,29,121,122,123,124,34,55,175,166,243,244,300,275,276,
166,167,57,149,154,155,152,62,166,203,204,354,355,356,386,387,
189,190,85,177,178,179,180,90,189,231,232,55,383,384,414,415,
27,28,113,114,115,116,117,118,27,259,260,189,411,412,442,443,
55,27,28,166,167,27,28,189,190,287,288,166,167,168,363,166,
190,220,56,189,190,28,189,190,27,423,316,167,168,28,166,167,
245,248,220,27,28,166,167,168,55,343,344,1,2,3,4,5,
275,276,248,249,250,189,190,27,166,166,372,29,121,122,123,124,
386,387,388,389,278,167,168,55,56,166,167,57,149,154,155,152,
414,415,416,417,418,27,166,166,167,168,28,85,177,178,179,180,
442,443,444,445,446,218,219,166,423,55,56,113,114,115,116,117,
2,3,4,5,6,166,167,27,28,166,363,168,28,28,166,167,
30,31,32,33,34,391,190,55,56,166,167,55,56,56,166,363,
58,59,60,61,62,27,28,185,186,27,28,201,202,190,185,186,
86,87,88,89,90,55,56,166,167,55,56,229,230,167,445,446,
114,115,116,117,118,190,55,56,189,190,55,56,166,167,55,56,
27,28,189,190,27,28,166,167,27,28,185,186,27,28,141,142,
218,219,166,167,1,2,3,4,5,6,166,167,55,56,169,170,
55,56,166,363,29,121,122,123,124,34,27,28,189,190,197,198,
202,55,56,166,57,149,154,155,152,62,28,189,190,27,225,226,
230,167,27,55,85,177,178,179,180,90,166,423,168,391,56,166,
167,27,28,189,113,114,115,116,117,118,380,381,28,166,167,27,
7,8,69,70,71,72,190,55,56,407,408,409,410,215,216,214,
35,36,97,98,99,100,371,189,190,27,436,437,438,27,28,240,
56,189,190,55,56,55,56,166,167,55,56,201,202,55,56,268,
190,27,28,166,167,27,55,56,166,391,55,229,230,186,55,56,
143,144,190,27,166,166,363,168,28,166,167,166,167,27,28,1,
171,172,168,391,56,166,167,55,56,185,141,142,143,144,56,29,
199,200,28,166,167,27,28,166,167,168,169,170,171,172,186,57,
227,228,56,189,190,380,381,166,371,55,197,198,199,200,167,85,
28,212,213,215,216,408,409,410,218,219,225,226,227,228,166,113,
269,270,186,55,175,436,437,438,56,166,167,28,166,423,27,28,
167,27,28,166,203,423,55,56,189,28,166,167,189,190,55,56,
3,4,5,6,231,232,189,190,27,56,175,186,1,2,3,4,
31,32,33,34,341,342,166,167,55,363,203,55,29,30,31,32,
59,60,61,62,369,370,167,55,56,27,231,232,57,58,59,60,
87,88,89,90,315,175,28,371,167,55,259,260,85,86,87,88,
115,116,117,118,343,344,56,189,190,55,287,288,113,114,115,116,
27,28,189,27,28,372,190,27,28,166,56,316,28,185,186,27,
55,166,167,371,56,166,167,55,56,185,55,344,363,166,391,55,
201,202,27,166,167,27,28,166,167,27,343,344,167,27,28,166,
229,230,55,189,190,1,2,3,4,5,6,372,190,371,56,166,
27,28,166,27,28,29,30,31,32,33,34,27,175,185,201,202,
55,56,185,55,56,57,58,59,60,61,62,55,344,166,229,230,
166,167,168,55,56,85,86,87,88,89,90,56,372,167,55,56,
167,27,28,166,167,113,114,115,116,117,118,167,27,28,166,167,
190,391,56,189,190,55,56,166,10,11,12,7,8,69,70,71,
1,2,3,4,5,6,186,27,38,39,40,35,36,97,98,99,
29,30,31,32,33,34,363,55,56,166,167,166,167,55,201,202,
57,58,59,60,61,62,167,55,56,166,391,27,28,166,229,230,
85,86,87,88,89,90,190,55,56,189,190,380,381,166,167,55,
113,114,115,116,117,118,28,166,167,27,407,408,409,410,215,216,
56,55,56,166,167,55,56,185,186,55,56,436,437,438,56,166,
166,167,55,56,189,190,55,166,391,168,55,56,166,363,1,2,
4,5,6,167,27,28,166,167,27,28,166,167,27,28,29,30,
32,33,34,190,55,56,201,202,55,56,189,190,55,56,57,58,
60,61,62,28,189,190,229,230,166,167,27,28,185,186,85,86,
88,89,90,56,166,167,55,56,185,186,55,56,166,371,113,114,
116,117,118,55,56,166,167,55,56,185,186,27,166,166,167,168,
167,27,28,166,167,363,28,190,189,10,11,12,13,14,15,16,
190,55,56,189,190,55,56,38,189,38,39,40,41,42,43,44,
5,6,167,27,28,185,186,27,28,189,190,189,190,55,56,166,
33,34,186,55,56,1,2,3,4,5,423,27,28,185,186,27,
61,62,168,55,56,29,30,31,32,33,34,55,56,166,371,55,
89,90,28,166,167,57,58,59,60,61,62,166,167,55,56,185,
117,118,190,27,166,85,86,87,88,89,90,27,28,166,363,168,
166,167,141,142,143,144,114,115,116,117,118,55,56,166,167,201,
363,27,169,170,171,172,27,28,166,167,27,28,189,190,27,229,
190,391,197,198,199,200,55,341,342,190,55,166,391,168,423,56,
28,166,225,226,227,228,166,369,370,363,166,167,27,1,2,3,
56,185,186,55,56,166,189,190,220,56,189,190,55,29,30,31,
4,5,6,28,166,243,244,245,248,220,27,28,166,57,58,59,
32,33,34,56,243,244,300,275,276,248,249,250,363,85,86,87,
60,61,62,167,354,355,356,386,387,388,389,278,391,113,114,115,
88,89,90,186,55,383,384,414,415,416,417,418,419,56,166,167,
116,117,118,28,189,411,412,442,443,444,445,446,447,218,447,218,
66,67,68,69,70,71,72,10,11,12,7,8,69,70,71,72,
94,95,96,97,98,99,100,38,39,40,35,36,97,98,99,100,
56,185,186,55,56,166,167,55,1,2,3,4,5,6,56,166,
8,69,70,71,72,166,363,55,29,30,31,32,33,34,167,27,
36,97,98,99,100,27,28,189,57,58,59,60,61,62,166,166,
255,55,56,166,371,55,56,166,85,86,87,88,89,90,56,253,
283,28,189,190,27,166,167,27,113,114,115,116,117,118,167,281,
311,166,167,168,55,189,190,253,254,255,190,55,56,189,190,309,
166,363,27,28,363,27,28,281,282,283,28,166,167,27,28,185,
189,190,55,56,189,55,56,309,310,311,56,55,56,17,18,21,
27,28,166,167,27,28,185,166,391,28,20,21,22,45,46,49,
55,56,185,10,11,12,13,14,15,16,48,49,50,73,74,133,
3,4,5,38,39,40,41,42,43,44,160,159,129,133,134,135,
31,32,33,34,168,55,56,187,145,146,188,187,157,158,159,160,
59,60,61,62,28,166,167,27,173,174,10,11,12,7,8,69,
87,88,89,90,56,189,190,55,56,166,38,39,40,35,36,97,
115,116,117,118,167,27,28,185,186,27,28,189,190,167,253,254,
167,55,56,185,186,55,56,166,167,55,56,166,167,190,281,282,
167,27,28,166,27,28,189,190,27,28,166,167,27,28,309,310,
190,55,56,166,55,56,166,363,55,56,185,186,55,56,341,342,
28,185,186,27,28,189,190,167,27,28,166,167,27,28,369,370,
56,166,167,55,56,166,167,190,55,56,1,2,3,4,5,6,
342,28,27,28,201,202,27,28,166,423,29,30,31,32,33,34,
370,56,55,56,229,230,27,56,185,186,57,58,59,60,61,62,
166,167,253,254,255,167,27,28,166,167,85,86,87,88,89,90,
189,190,281,282,283,371,55,56,189,190,113,114,115,116,117,118,
27,28,309,310,311,28,166,167,27,28,185,186,27,28,189,190,
55,56,166,363,55,56,185,186,55,56,166,167,55,56,1,2,
255,28,166,167,27,28,189,190,27,166,166,363,168,28,29,30,
283,56,189,141,142,143,144,168,55,56,166,167,55,56,57,58,
311,167,27,169,170,171,172,28,166,167,27,28,166,167,85,86,
189,190,55,197,198,199,200,56,189,190,55,56,166,363,113,114,
27,28,189,225,226,227,228,167,391,28,185,186,27,28,189,190,
4,5,6,167,55,56,185,186,10,11,12,7,8,69,70,71
</data>
 </layer>
 <objectgroup id="2" name="enemies layer">
  <object id="1" type="ET00" gid="449" x="-32" y="12550" width="32" height="32">
   <properties>
    <property name="movement" value="EM01"/>
    <property name="spawn_add_to_level_ypos" type="int" value="200"/>
    <property name="spawn_screen_ypos" type="int" value="0"/>
   </properties>
  </object>
  <object id="2" type="ET00" gid="449" x="-32" y="12530" width="32" height="32">
   <properties>
    <property name="movement" value="EM01"/>
    <property name="spawn_add_to_level_ypos" type="int" value="200"/>
    <property name="spawn_screen_ypos" type="int" value="0"/>
   </properties>
  </object>
  <object id="3" type="ET00" gid="449" x="-31" y="12510" width="32" height="32">
   <properties>
    <property name="movement" value="EM01"/>
    <property name="spawn_add_to_level_ypos" type="int" value="200"/>
    <property name="spawn_screen_ypos" type="int" value="0"/>
   </properties>
  </object>
  <object id="4" type="ET00" gid="449" x="-32" y="12490" width="32" height="32">
   <properties>
    <property name="movement" value="EM01"/>
    <property name="spawn_add_to_level_ypos" type="int" value="200"/>
    <property name="spawn_screen_ypos" type="int" value="0"/>
   </properties>
  </object>
  <object id="5" type="ET00" gid="449" x="-32" y="12470" width="32" height="32">
   <properties>
    <property name="movement" value="EM01"/>
    <property name="spawn_add_to_level_ypos" type="int" value="200"/>
    <property name="spawn_screen_ypos" type="int" value="0"/>
   </properties>
  </object>
  <object id="6" type="ET00" gid="449" x="-32" y="12450" width="32" height="32">
   <properties>
    <property name="movement" value="EM01"/>
    <property name="spawn_add_to_level_ypos" type="int" value="200"/>
    <property name="spawn_screen_ypos" type="int" value="0"/>
   </properties>
  </object>
  <object id="7" type="ET00" gid="449" x="-32" y="12430" width="32" height="32">
   <properties>
    <property name="movement" value="EM01"/>
    <property name="spawn_add_to_level_ypos" type="int" value="200"/>
    <property name="spawn_screen_ypos" type="int" value="0"/>
   </properties>
  </object>
  <object id="8" type="ET00" gid="449" x="-32" y="12410" width="32" height="32">
   <properties>
    <property name="movement" value="EM01"/>
    <property name="spawn_add_to_level_ypos" type="int" value="200"/>
    <property name="spawn_screen_ypos" type="int" value="0"/>
   </properties>
  </object>
  <object id="9" type="ET00" gid="449" x="-32" y="12390" width="32" height="32">
   <properties>
    <property name="movement" value="EM01"/>
    <property name="spawn_add_to_level_ypos" type="int" value="200"/>
    <property name="spawn_screen_ypos" type="int" value="0"/>
   </properties>
  </object>
  <object id="10" type="ET00" gid="449" x="-32" y="12370" width="32" height="32">
   <properties>
    <property name="movement" value="EM01"/>
    <property name="spawn_add_to_level_ypos" type="int" value="200"/>
    <property name="spawn_screen_ypos" type="int" value="0"/>
   </properties>
  </object>
  <object id="11" type="ET00" gid="449" x="-32" y="12350" width="32" height="32">
   <properties>
    <property name="movement" value="EM01"/>
    <property name="spawn_add_to_level_ypos" type="int" value="200"/>
    <property name="spawn_screen_ypos" type="int" value="0"/>
   </properties>
  </object>
  <object id="12" type="ET00" gid="449" x="-32" y="12330" width="32" height="32">
   <properties>
    <property name="movement" value="EM01"/>
    <property name="spawn_add_to_level_ypos" type="int" value="200"/>
    <property name="spawn_screen_ypos" type="int" value="0"/>
   </properties>
  </object>
  <object id="13" type="ET00" gid="449" x="-32" y="12310" width="32" height="32">
   <properties>
    <property name="movement" value="EM01"/>
    <property name="spawn_add_to_level_ypos" type="int" value="200"/>
    <property name="spawn_screen_ypos" type="int" value="0"/>
   </properties>
  </object>
  <object id="14" type="ET00" gid="449" x="-32" y="12290" width="32" height="32">
   <properties>
    <property name="movement" value="EM01"/>
    <property name="spawn_add_to_level_ypos" type="int" value="200"/>
    <property name="spawn_screen_ypos" type="int" value="0"/>
   </properties>
  </object>
  <object id="15" type="ET00" gid="449" x="-32" y="12270" width="32" height="32">
   <properties>
    <property name="movement" value="EM01"/>
    <property name="spawn_add_to_level_ypos" type="int" value="200"/>
    <property name="spawn_screen_ypos" type="int" value="0"/>
   </properties>
  </object>
  <object id="16" type="ET00" gid="449" x="-32" y="12250" width="32" height="32">
   <properties>
    <property name="movement" value="EM01"/>
    <property name="spawn_add_to_level_ypos" type="int" value="200"/>
    <property name="spawn_screen_ypos" type="int" value="0"/>
   </properties>
  </object>
  <object id="17" type="ET00" gid="449" x="-32" y="12230" width="32" height="32">
   <properties>
    <property name="movement" value="EM01"/>
    <property name="spawn_add_to_level_ypos" type="int" value="200"/>
    <property name="spawn_screen_ypos" type="int" value="0"/>
   </properties>
  </object>
  <object id="18" type="ET00" gid="449" x="-32" y="12210" width="32" height="32">
   <properties>
    <property name="movement" value="EM01"/>
    <property name="spawn_add_to_level_ypos" type="int" value="200"/>
    <property name="spawn_screen_ypos" type="int" value="0"/>
   </properties>
  </object>
  <object id="19" type="ET00" gid="449" x="-32" y="12190" width="32" height="32">
   <properties>
    <property name="movement" value="EM01"/>
    <property name="spawn_add_to_level_ypos" type="int" value="200"/>
    <property name="spawn_screen_ypos" type="int" value="0"/>
   </properties>
  </object>
  <object id="20" type="ET00" gid="449" x="-32" y="12170" width="32" height="32">
   <properties>
    <property name="movement" value="EM01"/>
    <property name="spawn_add_to_level_ypos" type="int" value="200"/>
    <property name="spawn_screen_ypos" type="int" value="0"/>
   </properties>
  </object>
  <object id="21" type="ET00" gid="449" x="-32" y="12150" width="32" height="32">
   <properties>
    <property name="movement" value="EM01"/>
    <property name="spawn_add_to_level_ypos" type="int" value="200"/>
    <property name="spawn_screen_ypos" type="int" value="0"/>
   </properties>
  </object>
  <object id="22" type="ET00" gid="449" x="-32" y="12130" width="32" height="32">
   <properties>
    <property name="movement" value="EM01"/>
    <property name="spawn_add_to_level_ypos" type="int" value="200"/>
    <property name="spawn_screen_ypos" type="int" value="0"/>
   </properties>
  </object>
  <object id="23" type="ET00" gid="449" x="-32" y="11938" width="32" height="32">
   <properties>
    <property name="movement" value="EM02"/>
    <property name="spawn_add_to_level_ypos" type="int" value="200"/>
    <property name="spawn_screen_ypos" type="int" value="0"/>
   </properties>
  </object>
  <object id="24" type="ET00" gid="449" x="38" y="12828" width="32" height="32">
   <properties>
    <property name="movement" value="EM03"/>
    <property name="spawn_screen_ypos" type="int" value="256"/>
   </properties>
  </object>
 </objectgroup>
</map>
